!!!COM: Haydn, Franz Joseph
!!!OPR: Symphony in D Major
!!!OTL: Affettuoso 
!!!OMV: 3
!!!SCT: H I:93
!!!SCA: Thematisch-bibliographisches Werkevererzeichnis (A. van Hoboken)
!!!YOR: Dover Edition
!!!EED: Frances Bennion
!!!ENC: Frances Bennion
!!!CDT: 1732/3/31/-1809/5/31/
!!!OCY: Österreich
!!!YEC: Copyright (c) 1994, 2000 Center for Computer Assisted Research in the Humanities
!!!YEM: Rights to all derivative editions reserved.
!!!YEM: Refer to licensing agreement for further details.
!!!YEN: United States of America
**kern	**kern	**kern	**kern	**kern	**kern	**kern	**kern	**kern	**kern	**kern	**kern	**kern	**kern
*k[f#c#]	*k[f#c#]	*k[f#c#]	*k[f#c#]	*k[f#c#]	*k[f#c#]	*k[f#c#]	*k[f#c#]	*k[f#c#]	*k[]	*k[]	*k[]	*k[]	*k[]
*D:	*D:	*D:	*D:	*D:	*D:	*D:	*D:	*D:	*D:	*D:	*D:	*D:	*D:
*clefF	*clefF	*clefF	*clefC3	*clefF4	*clefF4	*clefF	*clefF	*clefF4	*clefF	*clefF	*clefF	*clefF	*clefF4
*M3/4	*M3/4	*M3/4	*M3/4	*M3/4	*M3/4	*M3/4	*M3/4	*M3/4	*M3/4	*M3/4	*M3/4	*M3/4	*M3/4
*tb16	*tb16	*tb16	*tb16	*tb16	*tb16	*tb16	*tb16	*tb16	*tb16	*tb16	*tb16	*tb16	*tb16
=0-	=0-	=0-	=0-	=0-	=0-	=0-	=0-	=0-	=0-	=0-	=0-	=0-	=0-
2r	2r	2r	2r	2r	2r	2r	2r	2r	2r	2r	2r	2r	2r
4ddd	4dd	4dd	4dd	4d	4d	4dd	4dd	4d	4r	4r	4r	4r	4r
=1	=1	=1	=1	=1	=1	=1	=1	=1	=1	=1	=1	=1	=1
4ccc#	4cc#	4cc#	4cc#	4c#	4c#	4cc#	4cc#	4c#	2.r	2.r	2.r	2.r	2.r
4ddd	4dd	4dd	4dd	4d	4d	4dd	4dd	4d	.	.	.	.	.
4ff#	4f#	4f#	4f#	4F#	4F#	4f#	4f#	4F#	.	.	.	.	.
=2	=2	=2	=2	=2	=2	=2	=2	=2	=2	=2	=2	=2	=2
4gg	4g	4g	4g	4G	4G	4g	4g	4G	2.r	2.r	2.r	2.r	2.r
4bb	4b	4b	4b	4B	4B	4b	4b	4B	.	.	.	.	.
4ee	4e	4e	4e	4E	4E	4ee	4ee	4E	.	.	.	.	.
=3	=3	=3	=3	=3	=3	=3	=3	=3	=3	=3	=3	=3	=3
8dd#	8d#	8d#	8d#	8D#	8D#	8dd#	8dd#	8D#	2r	2r	2r	2r	2r
8ee	8e	8e	8e	8E	8E	8ee	8ee	8E	.	.	.	.	.
8gg	8g	8g	8g	8G	8G	8gg	8gg	8G	.	.	.	.	.
8ee	8e	8e	8e	8E	8E	8ee	8ee	8E	.	.	.	.	.
8cc#	8c#	8c#	8c#	8C#	8C#	8cc#	8cc#	8C#	4dd	4g	4dd	4g	4AA
8a	8A	8A	8A	8AA	8AA	8a	8a	8AA	.	.	.	.	.
=4	=4	=4	=4	=4	=4	=4	=4	=4	=4	=4	=4	=4	=4
4dd	4d	4d	4d	4D	4D	4dd	4dd	4D	2ee	2cc	2ee	2cc	4D
4ff#	4f#	4f#	4f#	4F#	4F#	4ff#	4ff#	4F#	.	.	.	.	2r
4ff#	4ff#	4f#	4r	4d	4d	4r	4r	4r	4r	4r	4r	4r	.
=5	=5	=5	=5	=5	=5	=5	=5	=5	=5	=5	=5	=5	=5
4ee#	4ee#	4e#	2a	4c#	4c#	2.r	2.r	2.r	2.r	2.r	2.r	2.r	2.r
4ff#	4ff#	4f#	.	4d	4d	.	.	.	.	.	.	.	.
4gg#	4gg#	4g#	4dd	4B	4B	.	.	.	.	.	.	.	.
=6	=6	=6	=6	=6	=6	=6	=6	=6	=6	=6	=6	=6	=6
4aa	4aa	4a	4cc#	4c#	4c#	2r	2.r	2.r	2.r	2.r	2.r	2.r	2.r
4ccc#	4ccc#	4cc#	4a	4A	4A	.	.	.	.	.	.	.	.
4eee	4eee	4c#	4r	4r	4r	4ee	.	.	.	.	.	.	.
=7	=7	=7	=7	=7	=7	=7	=7	=7	=7	=7	=7	=7	=7
4ddd#	4ddd#	8c#	8A	8A	4AA	4dd#	4r	8A	4r	4r	4r	4r	4AA
.	.	8e	8c#	8c#	.	.	.	8c#	.	.	.	.	.
4eee	4eee	8c#	8A	8A	2r	4ee	4cc#	8A	4dd	4g	4dd	4g	2r
.	.	8e	8c#	8c#	.	.	.	8c#	.	.	.	.	.
8ccc#	8ccc#	8c#	8A	8A	.	8cc#	4cc#	8A	8dd	8g	8dd	8g	.
8aa	8aa	8e	8c#	8c#	.	8a	.	8c#	8dd	8g	8dd	8g	.
=8	=8	=8	=8	=8	=8	=8	=8	=8	=8	=8	=8	=8	=8
4gg#	4gg#	8d	8B	8B	4E	4g#	4dd	8B	4dd	4dd	4dd	4dd	2.r
.	.	8e	8d	8d	.	.	.	8d	.	.	.	.	.
4gg#	4gg#	8d	8B	8B	2r	4g#	2r	8B	2r	2r	2r	2r	.
.	.	8e	8d	8d	.	.	.	8d	.	.	.	.	.
4eee	4eee	8d	8B	8B	.	4ee	.	8B	.	.	.	.	.
.	.	8e	8d	8d	.	.	.	8d	.	.	.	.	.
=9	=9	=9	=9	=9	=9	=9	=9	=9	=9	=9	=9	=9	=9
4ddd#	4ddd#	8B	8G#	8G#	4E	4dd#	4r	8G#	4r	4r	4r	4r	2.r
.	.	8e	8B	8B	.	.	.	8B	.	.	.	.	.
4eee	4eee	8B	8G#	8G#	2r	4ee	4b	8G#	4dd	4dd	4dd	4dd	.
.	.	8e	8B	8B	.	.	.	8B	.	.	.	.	.
8ddd	8ddd	8B	8G#	8G#	.	8dd	4b	8G#	8dd	8dd	8dd	8dd	.
8bb	8bb	8e	8B	8B	.	8b	.	8B	8dd	8dd	8dd	8dd	.
=10	=10	=10	=10	=10	=10	=10	=10	=10	=10	=10	=10	=10	=10
4ccc#	4ccc#	8c#	8A	8A	4AA	4cc#	4cc#	8A	4dd	4g	4dd	4g	4AA
.	.	8e	8c#	8c#	.	.	.	8c#	.	.	.	.	.
4ccc#	4ccc#	8c#	8A	8A	4r	4cc#	4r	8A	4r	4r	2r	2r	4r
.	.	8e	8c#	8c#	.	.	.	8c#	.	.	.	.	.
8ccc#	8ccc#	8A	4e	4AA	4AA	8ccc#	4ee	4AA	4dd	4g	.	.	4AA
8aa	8aa	8a	.	.	.	8aa	.	.	.	.	.	.	.
=11	=11	=11	=11	=11	=11	=11	=11	=11	=11	=11	=11	=11	=11
4ff#	4ff#	4a	4f#	2D	2D	4ff#	4ff#	4D	4ee	4cc	4ee	4cc	4D
8bb	8bb	4r	4r	.	.	8bb	4r	4r	4r	4r	4r	4r	2r
8gg#	8gg#	.	.	.	.	8gg#	.	.	.	.	.	.	.
4ee	4ee	4e 4dd	4B	4E	4E	4ee	4b	4E	4dd	4dd	4dd	4dd	.
=12	=12	=12	=12	=12	=12	=12	=12	=12	=12	=12	=12	=12	=12
4aa	4aa	4cc# 4e	4c#	4AA	4AA	4aa	4cc#	4AA	4gg	4g	4dd	4g	4AA
4aa	4aa	4cc# 4e	4c#	4AA	4AA	4aa	4ee	4AA	4r	4r	4dd	4g	2r
8ccc#	8ccc#	8ee	4r	4r	4r	8ccc#	4a	4r	4dd	4g	4r	4r	.
8aa	8aa	8cc#	.	.	.	8aa	.	.	.	.	.	.	.
=13	=13	=13	=13	=13	=13	=13	=13	=13	=13	=13	=13	=13	=13
4ff#	4ff#	4ff#	4A	2D	2D	4ff#	4a	4D	4ee	4cc	4ee	4cc	4D
8bb	8bb	4dd	4r	.	.	8bb	4r	4r	4r	4r	4r	4r	2r
8gg#	8gg#	.	.	.	.	8gg#	.	.	.	.	.	.	.
4ee	4ee	4b 4g#	4d	4E	4E	4ee	4dd	4E	4dd	4dd	4dd	4dd	.
=14	=14	=14	=14	=14	=14	=14	=14	=14	=14	=14	=14	=14	=14
4aa	4aa	4cc# 4a	4c#	4AA	4AA	4aa	4cc#	4AA	4gg	4g	4dd	4g	4AA
4r	4r	4r	4r	4r	4r	4r	4r	4r	4r	4r	4r	4r	4r
4r	4a	4e	4c#	4r	4r	4r	4r	4c#	4r	4r	4r	4r	4r
=15	=15	=15	=15	=15	=15	=15	=15	=15	=15	=15	=15	=15	=15
2.r	4g#	4f	4d	2r	2r	2.r	2.r	4d	2.r	2.r	2.r	2.r	2.r
.	4a	4e	4c#	.	.	.	.	4c#	.	.	.	.	.
.	4c#	4c#	8B-	8B-	8B-	.	.	8B-	.	.	.	.	.
.	.	.	8A	8A	8A	.	.	8A	.	.	.	.	.
=16	=16	=16	=16	=16	=16	=16	=16	=16	=16	=16	=16	=16	=16
2.r	4d	4d	8G	8G	8G	2.r	2.r	8G	2.r	2.r	2.r	2.r	2.r
.	.	.	8F	8F	8F	.	.	8F	.	.	.	.	.
.	4f	4f	8E	8E	8E	.	.	8E	.	.	.	.	.
.	.	.	8D	8D	8D	.	.	8D	.	.	.	.	.
.	4dd	4a	4f	4r	4r	.	.	4f	.	.	.	.	.
=17	=17	=17	=17	=17	=17	=17	=17	=17	=17	=17	=17	=17	=17
2.r	4cc#	4b-	4g	2r	2r	2.r	2.r	4g	2.r	2.r	2.r	2.r	2.r
.	4dd	4a	4f	.	.	.	.	4f	.	.	.	.	.
.	4f#	4f#	4A	8E-	8E-	.	.	4A	.	.	.	.	.
.	.	.	.	8D	8D	.	.	.	.	.	.	.	.
=18	=18	=18	=18	=18	=18	=18	=18	=18	=18	=18	=18	=18	=18
2.r	4g	4g	4B-	8C	8C	2.r	2.r	4B-	2.r	2.r	2.r	2.r	2.r
.	.	.	.	8BB-	8BB-	.	.	.	.	.	.	.	.
.	4b-	4b-	4d	8AA	8AA	.	.	4d	.	.	.	.	.
.	.	.	.	8GG	8GG	.	.	.	.	.	.	.	.
.	4g#	4g#	4B	8F	8F	.	.	4B	.	.	.	.	.
.	.	.	.	8E	8E	.	.	.	.	.	.	.	.
=19	=19	=19	=19	=19	=19	=19	=19	=19	=19	=19	=19	=19	=19
2.r	4a	4a	4c#	8D	8D	2.r	2.r	4c#	2.r	2.r	2.r	2.r	2.r
.	.	.	.	8C#	8C#	.	.	.	.	.	.	.	.
.	4cc#	4cc#	4e	8BB	8BB	.	.	4e	.	.	.	.	.
.	.	.	.	8AA	8AA	.	.	.	.	.	.	.	.
.	8bb-	8c#	8e	4AA	4AA	.	.	8e	.	.	.	.	.
.	8aa	8d	8f	.	.	.	.	8f	.	.	.	.	.
=20	=20	=20	=20	=20	=20	=20	=20	=20	=20	=20	=20	=20	=20
2.ccc#	8gg	2.e 2.c#	2.g	2.AA	2.AA	2.ee	2.gg	2.g	2.dd	2.g	2.dd	2.g	4AA
.	8ff	.	.	.	.	.	.	.	.	.	.	.	.
.	8ee	.	.	.	.	.	.	.	.	.	.	.	8AA
.	8dd	.	.	.	.	.	.	.	.	.	.	.	8AA
.	8cc#	.	.	.	.	.	.	.	.	.	.	.	8AA
.	8b-	.	.	.	.	.	.	.	.	.	.	.	8AA
=21	=21	=21	=21	=21	=21	=21	=21	=21	=21	=21	=21	=21	=21
[2.ddd	8a	2.f 2.d	4f	2.AA	2.AA	[2.dd	[2.ff	2.f	2.cc	2.cc	2.cc	2.cc	4AA
.	8g	.	.	.	.	.	.	.	.	.	.	.	.
.	8f	.	2r	.	.	.	.	.	.	.	.	.	2r
.	8e	.	.	.	.	.	.	.	.	.	.	.	.
.	8d	.	.	.	.	.	.	.	.	.	.	.	.
.	8c	.	.	.	.	.	.	.	.	.	.	.	.
=22	=22	=22	=22	=22	=22	=22	=22	=22	=22	=22	=22	=22	=22
2.ddd]	8B-	4B-	4B-	4BB-	4BB-	2.dd]	2.ff]	4BB-	4cc	4cc	4cc	4cc	4D
.	8d	.	.	.	.	.	.	.	.	.	.	.	.
.	8A	4A	4A	4AA	4AA	.	.	4AA	8cc	8cc	8cc	8cc	8D
.	8d	.	.	.	.	.	.	.	8cc	8cc	8cc	8cc	8D
.	8G#	4G#	4G#	4GG#	4GG#	.	.	4GG#	4cc	4cc	4cc	4cc	8D
.	8d	.	.	.	.	.	.	.	.	.	.	.	8D
=23	=23	=23	=23	=23	=23	=23	=23	=23	=23	=23	=23	=23	=23
4ccc#	8c#	4A	4A	4AA	4AA	4ee	4ee	4AA	4g	4g	4g	4g	4AA
.	8e	.	.	.	.	.	.	.	.	.	.	.	.
2r	8g#	2r	4r	4r	4r	2r	2r	4r	2r	2r	2r	2r	2r
.	8a	.	.	.	.	.	.	.	.	.	.	.	.
.	4r	.	4f#	4d	4d	.	.	4f#	.	.	.	.	.
=24	=24	=24	=24	=24	=24	=24	=24	=24	=24	=24	=24	=24	=24
2.r	2r	2r	4e#	4c#	4c#	2.r	2.r	4e#	2.r	2.r	2.r	2.r	2.r
.	.	.	4f#	4d	4d	.	.	4f#	.	.	.	.	.
.	8ee	8ee	4A	4F#	4F#	.	.	4A	.	.	.	.	.
.	8dd	8dd	.	.	.	.	.	.	.	.	.	.	.
=25	=25	=25	=25	=25	=25	=25	=25	=25	=25	=25	=25	=25	=25
2.r	8cc	8cc	4B	4G	4G	2.r	2.r	4B	2.r	2.r	2.r	2.r	2.r
.	8b	8b	.	.	.	.	.	.	.	.	.	.	.
.	8a	8a	4d	4B	4B	.	.	4d	.	.	.	.	.
.	8g	8g	.	.	.	.	.	.	.	.	.	.	.
.	8cc	8cc	4F#	4D#	4D#	.	.	4F#	.	.	.	.	.
.	8b	8b	.	.	.	.	.	.	.	.	.	.	.
=26	=26	=26	=26	=26	=26	=26	=26	=26	=26	=26	=26	=26	=26
2.r	8a	8a	4G	4E	4E	2.r	2.r	4G	2.r	2.r	2.r	2.r	2.r
.	8g	8g	.	.	.	.	.	.	.	.	.	.	.
.	8f#	8f#	4B	4G	4G	.	.	4B	.	.	.	.	.
.	8e	8e	.	.	.	.	.	.	.	.	.	.	.
.	8b	8b	4E	4C#	4C#	.	.	4E	.	.	.	.	.
.	8a	8a	.	.	.	.	.	.	.	.	.	.	.
=27	=27	=27	=27	=27	=27	=27	=27	=27	=27	=27	=27	=27	=27
2.r	8g	8g	4F#	4D	4D	2.r	2.r	4F#	2.r	2.r	2.r	2.r	2.r
.	8f#	8f#	.	.	.	.	.	.	.	.	.	.	.
.	8e	8e	4A	4F#	4F#	.	.	4A	.	.	.	.	.
.	8d	8d	.	.	.	.	.	.	.	.	.	.	.
.	8A	8A	4F#	4FF#	4FF#	.	.	4F#	.	.	.	.	.
.	8d	8d	.	.	.	.	.	.	.	.	.	.	.
=28	=28	=28	=28	=28	=28	=28	=28	=28	=28	=28	=28	=28	=28
2.r	8B	8B	4G	4GG	4GG	2.r	2.r	4G	2.r	2.r	2.r	2.r	2.r
.	8e	8e	.	.	.	.	.	.	.	.	.	.	.
.	8c#	8c#	4A	4AA	4AA	.	.	4A	.	.	.	.	.
.	8f#	8f#	.	.	.	.	.	.	.	.	.	.	.
.	8d	8d	4B	4BB	4BB	.	.	4B	.	.	.	.	.
.	8g	8g	.	.	.	.	.	.	.	.	.	.	.
=29	=29	=29	=29	=29	=29	=29	=29	=29	=29	=29	=29	=29	=29
4r	8e	8e	4c#	2C#	2C#	2gg	2ee	2c#	4r	4r	4r	4r	4AA
.	8b	8b	.	.	.	.	.	.	.	.	.	.	.
4aa	8a	8a	4e	.	.	.	.	.	4dd	4g	4dd	4g	8AA
.	8gg	8gg	.	.	.	.	.	.	.	.	.	.	8AA
8ff#	8ff#	8ff#	4A	4D	4D	4ff#	4dd	4d	4ee	4cc	4ee	4cc	4D
8dd	8dd	8dd	.	.	.	.	.	.	.	.	.	.	.
=30	=30	=30	=30	=30	=30	=30	=30	=30	=30	=30	=30	=30	=30
4b	8b	8b	4B	4G	4G	8bb	8b	4G	4ff	4dd	4ff	4dd	2r
.	8ee	8g	.	.	.	8gg	8ee	.	.	.	.	.	.
4a	4dd	4f#	4A	4A	4A	4ff#	4dd	4A	4ee	4cc	4ee	4cc	.
4ccc#	4cc#	4e	4G	4AA	4AA	4ee	4cc#	4AA	4dd	4g	4dd	4g	8AA
.	.	.	.	.	.	.	.	.	.	.	.	.	8AA
=31	=31	=31	=31	=31	=31	=31	=31	=31	=31	=31	=31	=31	=31
8ddd	4dd	4d	4F#	4D	4D	4dd	4dd	4D	4cc	4e	4cc	4e	16D
.	.	.	.	.	.	.	.	.	.	.	.	.	16D
8ddd	.	.	.	.	.	.	.	.	.	.	.	.	16D
.	.	.	.	.	.	.	.	.	.	.	.	.	16D
8ddd	2r	2r	2r	2r	2r	4r	4r	2r	2r	2r	2r	2r	16D
.	.	.	.	.	.	.	.	.	.	.	.	.	16D
8ddd	.	.	.	.	.	.	.	.	.	.	.	.	16D
.	.	.	.	.	.	.	.	.	.	.	.	.	16D
8ddd	.	.	.	.	.	4aa	4ff#	.	.	.	.	.	16D
.	.	.	.	.	.	.	.	.	.	.	.	.	16D
8ddd	.	.	.	.	.	.	.	.	.	.	.	.	16D
.	.	.	.	.	.	.	.	.	.	.	.	.	16D
=32	=32	=32	=32	=32	=32	=32	=32	=32	=32	=32	=32	=32	=32
8ddd	2r	2r	2.r	2.r	2.r	4gg#	4ee#	2.r	2.r	2.r	2.r	2.r	16D
.	.	.	.	.	.	.	.	.	.	.	.	.	16D
8ddd	.	.	.	.	.	.	.	.	.	.	.	.	16D
.	.	.	.	.	.	.	.	.	.	.	.	.	16D
8ddd	.	.	.	.	.	4aa	4ff#	.	.	.	.	.	16D
.	.	.	.	.	.	.	.	.	.	.	.	.	16D
8ddd	.	.	.	.	.	.	.	.	.	.	.	.	16D
.	.	.	.	.	.	.	.	.	.	.	.	.	16D
8ddd	4a	4f#	.	.	.	4r	4r	.	.	.	.	.	16D
.	.	.	.	.	.	.	.	.	.	.	.	.	16D
8ddd	.	.	.	.	.	.	.	.	.	.	.	.	16D
.	.	.	.	.	.	.	.	.	.	.	.	.	16D
=33	=33	=33	=33	=33	=33	=33	=33	=33	=33	=33	=33	=33	=33
8ddd	4g#	4e#	2.r	2.r	2.r	2r	2r	2.r	2.r	2.r	2.r	2.r	16D
.	.	.	.	.	.	.	.	.	.	.	.	.	16D
8ddd	.	.	.	.	.	.	.	.	.	.	.	.	16D
.	.	.	.	.	.	.	.	.	.	.	.	.	16D
8ddd	4a	4f#	.	.	.	.	.	.	.	.	.	.	16D
.	.	.	.	.	.	.	.	.	.	.	.	.	16D
8ddd	.	.	.	.	.	.	.	.	.	.	.	.	16D
.	.	.	.	.	.	.	.	.	.	.	.	.	16D
8ddd	4r	4r	.	.	.	4aa	4ff#	.	.	.	.	.	16D
.	.	.	.	.	.	.	.	.	.	.	.	.	16D
8ddd	.	.	.	.	.	.	.	.	.	.	.	.	16D
.	.	.	.	.	.	.	.	.	.	.	.	.	16D
=34	=34	=34	=34	=34	=34	=34	=34	=34	=34	=34	=34	=34	=34
8ddd	2r	2r	2.r	2.r	2.r	4gg#	4ee#	2.r	2.r	2.r	2.r	2.r	16D
.	.	.	.	.	.	.	.	.	.	.	.	.	16D
8ddd	.	.	.	.	.	.	.	.	.	.	.	.	16D
.	.	.	.	.	.	.	.	.	.	.	.	.	16D
8ddd	.	.	.	.	.	4aa	4ff#	.	.	.	.	.	16D
.	.	.	.	.	.	.	.	.	.	.	.	.	16D
8ddd	.	.	.	.	.	.	.	.	.	.	.	.	16D
.	.	.	.	.	.	.	.	.	.	.	.	.	16D
8ddd	4a	4f#	.	.	.	4r	4r	.	.	.	.	.	16D
.	.	.	.	.	.	.	.	.	.	.	.	.	16D
8ddd	.	.	.	.	.	.	.	.	.	.	.	.	16D
.	.	.	.	.	.	.	.	.	.	.	.	.	16D
=35	=35	=35	=35	=35	=35	=35	=35	=35	=35	=35	=35	=35	=35
8ddd	4g#	4e#	2r	2r	2r	2r	2r	2r	2.r	2.r	2.r	2.r	16D
.	.	.	.	.	.	.	.	.	.	.	.	.	16D
8ddd	.	.	.	.	.	.	.	.	.	.	.	.	16D
.	.	.	.	.	.	.	.	.	.	.	.	.	16D
8ddd	4a	4f#	.	.	.	.	.	.	.	.	.	.	16D
.	.	.	.	.	.	.	.	.	.	.	.	.	16D
8ddd	.	.	.	.	.	.	.	.	.	.	.	.	16D
.	.	.	.	.	.	.	.	.	.	.	.	.	16D
8ddd	4ddd	4ff#	4d	4B	4B	4ddd	4dd	4B	.	.	.	.	16D
.	.	.	.	.	.	.	.	.	.	.	.	.	16D
8ddd	.	.	.	.	.	.	.	.	.	.	.	.	16D
.	.	.	.	.	.	.	.	.	.	.	.	.	16D
=36	=36	=36	=36	=36	=36	=36	=36	=36	=36	=36	=36	=36	=36
4ccc#	4ccc#	4gg	4e	4A#	4A#	4ccc#	4ee	4A#	2.r	2.r	2.r	2.r	16D
.	.	.	.	.	.	.	.	.	.	.	.	.	16D
.	.	.	.	.	.	.	.	.	.	.	.	.	16D
.	.	.	.	.	.	.	.	.	.	.	.	.	16D
4ddd	4ddd	4ff#	4d	4B	4B	4ddd	4dd	4B	.	.	.	.	16D
.	.	.	.	.	.	.	.	.	.	.	.	.	16D
.	.	.	.	.	.	.	.	.	.	.	.	.	16D
.	.	.	.	.	.	.	.	.	.	.	.	.	16D
4bb	4bb	4gg	4d	4G	4G	4bb	4gg	4G	.	.	.	.	16D
.	.	.	.	.	.	.	.	.	.	.	.	.	16D
.	.	.	.	.	.	.	.	.	.	.	.	.	16D
.	.	.	.	.	.	.	.	.	.	.	.	.	16D
=37	=37	=37	=37	=37	=37	=37	=37	=37	=37	=37	=37	=37	=37
8aa	8aa	8ff#	2d	2A	2A	8aa	4ff#	2A	2ee	2cc	2ee	2cc	4AA
8ff#	8ff#	8dd	.	.	.	8ff#	.	.	.	.	.	.	.
4dd	4dd	4f#	.	.	.	4dd	4ff#	.	.	.	.	.	8AA
.	.	.	.	.	.	.	.	.	.	.	.	.	8AA
4cc#	4cc#	4e	4A	4AA	4AA	4cc#	4ee	4AA	4dd	4g	4dd	4g	4AA
=38	=38	=38	=38	=38	=38	=38	=38	=38	=38	=38	=38	=38	=38
4dd	4dd	8f#	8d	4D	4D	4dd	4dd	8d	4cc	4e	4cc	4e	4D
.	.	8a	8f#	.	.	.	.	8f#	.	.	.	.	.
2r	4r	8f#	8d	4DD	4DD	4r	2r	8d	2r	2r	2r	2r	2r
.	.	8a	8f#	.	.	.	.	8f#	.	.	.	.	.
.	4aa	8f#	8d	4r	4r	4aa	.	8d	.	.	.	.	.
.	.	8a	8f#	.	.	.	.	8f#	.	.	.	.	.
=39	=39	=39	=39	=39	=39	=39	=39	=39	=39	=39	=39	=39	=39
4r	4gg#	8f#	8d	2.D	2.D	4gg#	4r	8d	4r	4r	4r	4r	4D
.	.	8a	8f#	.	.	.	.	8f#	.	.	.	.	.
4aa	4aa	8f#	8d	.	.	4aa	4ff#	8d	4gg	4g	4ee	4cc	2r
.	.	8a	8f#	.	.	.	.	8f#	.	.	.	.	.
4aa	8ff#	8f#	8d	.	.	8ff#	4ff#	8d	4gg	4g	4ee	4cc	.
.	8dd	8a	8f#	.	.	8dd	.	8f#	.	.	.	.	.
=40	=40	=40	=40	=40	=40	=40	=40	=40	=40	=40	=40	=40	=40
4aa	4cc#	8g	8e	2A	2A	4cc#	4gg	8e	[2.gg	[2.g	2.dd	2.g	4AA
.	.	8a	8g	.	.	.	.	8g	.	.	.	.	.
2r	4cc#	8g	8e	.	.	4cc#	2r	8e	.	.	.	.	2r
.	.	8a	8g	.	.	.	.	8g	.	.	.	.	.
.	4aa	8g	8e	4r	4r	4aa	.	8e	.	.	.	.	.
.	.	8a	8g	.	.	.	.	8g	.	.	.	.	.
=41	=41	=41	=41	=41	=41	=41	=41	=41	=41	=41	=41	=41	=41
4r	4gg#	8e	8c#	4A	4A	4gg#	4r	8c#	2.gg_	2.g_	4dd	4g	4AA
.	.	8a	8e	.	.	.	.	8e	.	.	.	.	.
4eee	4aa	8g	8c#	2r	2r	4aa	4ee	8c#	.	.	4dd	4g	8AA
.	.	8a	8e	.	.	.	.	8e	.	.	.	.	8AA
4gg	8gg	8e	8c#	.	.	8gg	4ee	8c#	.	.	4dd	4g	8AA
.	8ee	8a	8e	.	.	8ee	.	8e	.	.	.	.	8AA
=42	=42	=42	=42	=42	=42	=42	=42	=42	=42	=42	=42	=42	=42
4ff#	4ff#	8f#	8d	4D	4D	4ff#	4ff#	8d	2gg]	2g]	2ee	2cc	4D
.	.	8a	8f#	.	.	.	.	8f#	.	.	.	.	.
4ff#	4ff#	8f#	8d	4r	4r	4ff#	4r	8d	.	.	.	.	2r
.	.	8a	8f#	.	.	.	.	8f#	.	.	.	.	.
4r	8ff#	8A	4D	4D	4D	8ff#	4a	4D	4r	4r	4r	4r	.
.	8dd	8a	.	.	.	8dd	.	.	.	.	.	.	.
=43	=43	=43	=43	=43	=43	=43	=43	=43	=43	=43	=43	=43	=43
2r	4b	4b	4G	4G	4G	4b	4b	4G	2r	2r	2r	2r	2r
.	8ee	4r	4r	4r	4r	8ee	4r	4r	.	.	.	.	.
.	8cc#	.	.	.	.	8cc#	.	.	.	.	.	.	.
4ccc#	4a	4A 4g	4e	4A	4A	4a	4g	4A	4dd	4g	4dd	4g	4AA
=44	=44	=44	=44	=44	=44	=44	=44	=44	=44	=44	=44	=44	=44
4ddd	4dd	4A 4f#	4d	4D	4D	4dd	4f#	4D	4ee	4cc	4ee	4cc	4D
4ddd	4dd	4A 4f#	4d	4D	4D	4dd	4f#	4D	4ee	4cc	4ee	4cc	2r
4r	8ff#	8a	4D	4r	4r	8ff#	4a	4r	4r	4r	4r	4r	.
.	8dd	8f#	.	.	.	8dd	.	.	.	.	.	.	.
=45	=45	=45	=45	=45	=45	=45	=45	=45	=45	=45	=45	=45	=45
2r	4b	4b	4G	4G	4G	4b	4b	4G	2r	2r	2r	2r	2r
.	8ee	4r	4r	4r	4r	8ee	4r	4r	.	.	.	.	.
.	8cc#	.	.	.	.	8cc#	.	.	.	.	.	.	.
4ccc#	4a	4c# 4e	4A 4g	4A	4A	4a	4g	4A	4dd	4g	4dd	4g	4AA
=46	=46	=46	=46	=46	=46	=46	=46	=46	=46	=46	=46	=46	=46
4ddd	4dd	4f# 4d	4f# 4A	4D	4D	4dd	4f#	4D	4cc	4e	4cc	4e	4D
4r	4r	4r	4r	4r	4r	4r	4r	4r	4r	4r	4r	4r	4r
12ddd	4r	4r	4r	4r	4r	12dd	12dd	12d	12cc	12c	12cc	12c	12D
12ddd	.	.	.	.	.	12dd	12dd	12d	12cc	12c	12cc	12c	12D
12ddd	.	.	.	.	.	12dd	12dd	12d	12cc	12c	12cc	12c	12D
=47	=47	=47	=47	=47	=47	=47	=47	=47	=47	=47	=47	=47	=47
4ddd	2.r	2.r	2.r	2.r	2.r	4dd	4dd	4d	4cc	4c	4cc	4c	4D
4r	.	.	.	.	.	4r	4r	4r	4r	4r	4r	4r	4r
12ddd	.	.	.	.	.	12dd	12dd	12d	12cc	12c	12cc	12c	12D
12ddd	.	.	.	.	.	12dd	12dd	12d	12cc	12c	12cc	12c	12D
12ddd	.	.	.	.	.	12dd	12dd	12d	12cc	12c	12cc	12c	12D
=48	=48	=48	=48	=48	=48	=48	=48	=48	=48	=48	=48	=48	=48
4ddd	2.r	2.r	2.r	2.r	2.r	4dd	4dd	4d	4cc	4c	4cc	4c	4D
4r	.	.	.	.	.	4r	4r	4r	4r	4r	4r	4r	4r
12ddd	.	.	.	.	.	12dd	12dd	12d	12cc	12c	12cc	12c	12D
12ddd	.	.	.	.	.	12dd	12dd	12d	12cc	12c	12cc	12c	12D
12ddd	.	.	.	.	.	12dd	12dd	12d	12cc	12c	12cc	12c	12D
=49	=49	=49	=49	=49	=49	=49	=49	=49	=49	=49	=49	=49	=49
4ddd	2.r	2.r	2.r	2.r	2.r	4dd	4dd	4d	4cc	4c	4cc	4c	4D
4ddd	.	.	.	.	.	4dd	4dd	4d	4cc	4c	4cc	4c	4D
4ddd	.	.	.	.	.	4dd	4dd	4d	4cc	4c	4cc	4c	4D
=50	=50	=50	=50	=50	=50	=50	=50	=50	=50	=50	=50	=50	=50
4ddd	2r	2.r	2.r	2.r	2.r	4dd	4dd	4d	4cc	4c	4cc	4c	4D
2r	.	.	.	.	.	2r	2r	2r	2r	2r	2r	2r	2r
.	8.b	.	.	.	.	.	.	.	.	.	.	.	.
.	16b	.	.	.	.	.	.	.	.	.	.	.	.
=51	=51	=51	=51	=51	=51	=51	=51	=51	=51	=51	=51	=51	=51
2.r	4b	2d	2f#	2.BB	2.BB	2.r	2.r	2.r	2.r	2.r	2.r	2.r	2.r
.	4f#	.	.	.	.	.	.	.	.	.	.	.	.
.	4dd	4f#	4B	.	.	.	.	.	.	.	.	.	.
=52	=52	=52	=52	=52	=52	=52	=52	=52	=52	=52	=52	=52	=52
2.r	4cc#	2f#	2c#	2.AA#	2.AA#	2.r	2.r	2.r	2.r	2.r	2.r	2.r	2.r
.	4f#	.	.	.	.	.	.	.	.	.	.	.	.
.	4ff#	8f#	4f#	.	.	.	.	.	.	.	.	.	.
.	.	8cc#	.	.	.	.	.	.	.	.	.	.	.
=53	=53	=53	=53	=53	=53	=53	=53	=53	=53	=53	=53	=53	=53
2.r	2ee	2cc#	2f#	4BB	4BB	2.r	2.r	2.r	2.r	2.r	2.r	2.r	2.r
.	.	.	.	4B	4B	.	.	.	.	.	.	.	.
.	4dd	4b	4e#	4E#	4E#	.	.	.	.	.	.	.	.
=54	=54	=54	=54	=54	=54	=54	=54	=54	=54	=54	=54	=54	=54
2r	4cc#	4a#	4f#	4F#	4F#	2r	2r	2r	2r	2r	2r	2r	2r
.	2r	2r	2r	2r	2r	.	.	.	.	.	.	.	.
12ddd	.	.	.	.	.	12dd	12dd	12d	12cc	12c	12cc	12c	12D
12ddd	.	.	.	.	.	12dd	12dd	12d	12cc	12c	12cc	12c	12D
12ddd	.	.	.	.	.	12dd	12dd	12d	12cc	12c	12cc	12c	12D
=55	=55	=55	=55	=55	=55	=55	=55	=55	=55	=55	=55	=55	=55
4ddd	2.r	2.r	2.r	2.r	2.r	4dd	4dd	4d	4cc	4c	4cc	4c	4D
4r	.	.	.	.	.	4r	4r	4r	4r	4r	4r	4r	4r
12ddd	.	.	.	.	.	12dd	12dd	12d	12cc	12c	12cc	12c	12D
12ddd	.	.	.	.	.	12dd	12dd	12d	12cc	12c	12cc	12c	12D
12ddd	.	.	.	.	.	12dd	12dd	12d	12cc	12c	12cc	12c	12D
=56	=56	=56	=56	=56	=56	=56	=56	=56	=56	=56	=56	=56	=56
4ddd	2.r	2.r	2.r	2.r	2.r	4dd	4dd	4d	4cc	4c	4cc	4c	4D
4r	.	.	.	.	.	4r	4r	4r	4r	4r	4r	4r	4r
12ddd	.	.	.	.	.	12dd	12dd	12d	12cc	12c	12cc	12c	12D
12ddd	.	.	.	.	.	12dd	12dd	12d	12cc	12c	12cc	12c	12D
12ddd	.	.	.	.	.	12dd	12dd	12d	12cc	12c	12cc	12c	12D
=57	=57	=57	=57	=57	=57	=57	=57	=57	=57	=57	=57	=57	=57
4ddd	2.r	2.r	2.r	2.r	2.r	4dd	4dd	4d	4cc	4c	4cc	4c	4D
4ddd	.	.	.	.	.	4dd	4dd	4d	4cc	4c	4cc	4c	4D
4ddd	.	.	.	.	.	4dd	4dd	4d	4cc	4c	4cc	4c	4D
=58	=58	=58	=58	=58	=58	=58	=58	=58	=58	=58	=58	=58	=58
4ddd	2r	2.r	2.r	2.r	2.r	4dd	4dd	4d	4cc	4c	4cc	4c	4D
2r	.	.	.	.	.	2r	2r	2r	2r	2r	2r	2r	2r
.	8.g	.	.	.	.	.	.	.	.	.	.	.	.
.	16g	.	.	.	.	.	.	.	.	.	.	.	.
=59	=59	=59	=59	=59	=59	=59	=59	=59	=59	=59	=59	=59	=59
2.r	4g	2B	2d	2.G	2.G	2.r	2.r	2.r	2.r	2.r	2.r	2.r	2.r
.	4d	.	.	.	.	.	.	.	.	.	.	.	.
.	4b	4d	4G	.	.	.	.	.	.	.	.	.	.
=60	=60	=60	=60	=60	=60	=60	=60	=60	=60	=60	=60	=60	=60
2.r	4a	2d	2A	2.F#	2.F#	2.r	2.r	2.r	2.r	2.r	2.r	2.r	2.r
.	4d	.	.	.	.	.	.	.	.	.	.	.	.
.	4dd	8d	4d	.	.	.	.	.	.	.	.	.	.
.	.	8a	.	.	.	.	.	.	.	.	.	.	.
=61	=61	=61	=61	=61	=61	=61	=61	=61	=61	=61	=61	=61	=61
2.r	2cc	2a	2d	4G	4G	2.r	2.r	2.r	2.r	2.r	2.r	2.r	2.r
.	.	.	.	4GG	4GG	.	.	.	.	.	.	.	.
.	4b	4g	4c#	4C#	4C#	.	.	.	.	.	.	.	.
=62	=62	=62	=62	=62	=62	=62	=62	=62	=62	=62	=62	=62	=62
2r	4a	4f#	4d	4D	4D	2r	2r	2r	2r	2r	2r	2r	2r
.	2r	2r	2r	2r	2r	.	.	.	.	.	.	.	.
12ddd	.	.	.	.	.	12dd	12dd	12d	12cc	12cc	12cc	12cc	12D
12ddd	.	.	.	.	.	12dd	12dd	12d	12cc	12cc	12cc	12cc	12D
12ddd	.	.	.	.	.	12dd	12dd	12d	12cc	12cc	12cc	12cc	12D
=63	=63	=63	=63	=63	=63	=63	=63	=63	=63	=63	=63	=63	=63
4ddd	2.r	2.r	2.r	2.r	2.r	4dd	4dd	4d	4cc	4cc	4cc	4cc	4D
4r	.	.	.	.	.	4r	4r	4r	4r	4r	4r	4r	4r
12ddd	.	.	.	.	.	12dd	12dd	12d	12cc	12cc	12cc	12cc	12D
12ddd	.	.	.	.	.	12dd	12dd	12d	12cc	12cc	12cc	12cc	12D
12ddd	.	.	.	.	.	12dd	12dd	12d	12cc	12cc	12cc	12cc	12D
=64	=64	=64	=64	=64	=64	=64	=64	=64	=64	=64	=64	=64	=64
4ddd	2r	2r	2r	2r	2r	4dd	4dd	4d	4cc	4cc	4cc	4cc	4D
4r	.	.	.	.	.	4r	4r	4r	4r	4r	4r	4r	2r
12eee	12ee	12d 12b	12g#	12G#	12G#	12ee	12ee	12e	12dd	12dd	12dd	12dd	.
12eee	12ee	12d 12b	12g#	12G#	12G#	12ee	12ee	12e	12dd	12dd	12dd	12dd	.
12eee	12ee	12d 12b	12g#	12G#	12G#	12ee	12ee	12e	12dd	12dd	12dd	12dd	.
=65	=65	=65	=65	=65	=65	=65	=65	=65	=65	=65	=65	=65	=65
4eee	4ee	4d 4b	4g#	4G#	4G#	4ee	4b	4G#	4dd	4dd	4dd	4dd	2.r
4eee	4ee	4b 4d	4g#	4G#	4G#	4ee	4b	4G#	4dd	4dd	4dd	4dd	.
4eee	4ee	4d 4b	4g#	4G#	4G#	4ee	4b	4G#	4dd	4dd	4dd	4dd	.
=66	=66	=66	=66	=66	=66	=66	=66	=66	=66	=66	=66	=66	=66
2eee	2ee	2c# 2a	2a	2A	2A	2ee	2cc#	4A	2dd	2g	2dd	2g	4AA
.	.	.	.	.	.	.	.	2r	.	.	.	.	2r
4aa	4aa	4aa 4cc#	4cc#	4AA	4AA	4r	4r	.	4r	4r	4r	4r	.
=67	=67	=67	=67	=67	=67	=67	=67	=67	=67	=67	=67	=67	=67
4r	8ee	4b 4e 4gg#	8e	4E	4E	4r	4r	4r	4r	4r	2.r	2.r	2.r
.	8ff#	.	8f#	.	.	.	.	.	.	.	.	.	.
4ddd	8ee	2r	8e	2r	2r	4gg#	4b	4E	4dd	4dd	.	.	.
.	8dd	.	8d	.	.	.	.	.	.	.	.	.	.
4ddd	8cc#	.	8c#	.	.	4gg#	4b	4E	4dd	4dd	.	.	.
.	8b	.	8B	.	.	.	.	.	.	.	.	.	.
=68	=68	=68	=68	=68	=68	=68	=68	=68	=68	=68	=68	=68	=68
4r	8a	4cc# 4aa 4e	8A	4A	4A	4r	4r	4r	4r	4r	2.r	2.r	2.r
.	8g#	.	8G#	.	.	.	.	.	.	.	.	.	.
4ccc#	8a	2r	8A	2r	2r	4aa	4cc#	4AA	4dd	4g	.	.	.
.	8b	.	8B	.	.	.	.	.	.	.	.	.	.
4ccc#	8cc#	.	8c#	.	.	4aa	4cc#	4AA	4dd	4g	.	.	.
.	8dd	.	8d	.	.	.	.	.	.	.	.	.	.
=69	=69	=69	=69	=69	=69	=69	=69	=69	=69	=69	=69	=69	=69
4r	8ee	4gg# 4e 4b	8e	4E	4E	4r	4r	4r	4r	4r	2.r	2.r	2.r
.	8ff#	.	8f#	.	.	.	.	.	.	.	.	.	.
4ddd	8ee	2r	8e	2r	2r	4gg#	4b	4E	4dd	4dd	.	.	.
.	8dd	.	8d	.	.	.	.	.	.	.	.	.	.
4ddd	8cc#	.	8c#	.	.	4gg#	4b	4E	4dd	4dd	.	.	.
.	8b	.	8B	.	.	.	.	.	.	.	.	.	.
=70	=70	=70	=70	=70	=70	=70	=70	=70	=70	=70	=70	=70	=70
4r	8a	4e 4cc# 4aa	8A	4A	4A	4r	4r	4r	4r	4r	2.r	2.r	2.r
.	8g#	.	8G#	.	.	.	.	.	.	.	.	.	.
4ccc#	8a	2r	8A	2r	2r	4aa	4cc#	4AA	4dd	4g	.	.	.
.	8b	.	8B	.	.	.	.	.	.	.	.	.	.
4ccc#	8cc#	.	8c#	.	.	4aa	4cc#	4AA	4dd	4g	.	.	.
.	8dd	.	8d	.	.	.	.	.	.	.	.	.	.
=71	=71	=71	=71	=71	=71	=71	=71	=71	=71	=71	=71	=71	=71
4r	8ee	4e 4gg# 4b	8e	4E	4E	4r	4r	4r	4r	4r	2.r	2.r	2.r
.	8ff#	.	8f#	.	.	.	.	.	.	.	.	.	.
4ddd	8ee	2r	8e	4E	4E	4gg#	4b	4E	4dd	4dd	.	.	.
.	8dd	.	8d	.	.	.	.	.	.	.	.	.	.
4ddd	8cc#	.	8c#	4E	4E	4gg#	4b	4E	4dd	4dd	.	.	.
.	8b	.	8B	.	.	.	.	.	.	.	.	.	.
=72	=72	=72	=72	=72	=72	=72	=72	=72	=72	=72	=72	=72	=72
4ccc#	4a	4cc# 4e 4aa	4A	4A	4A	4aa	4cc#	4AA	4dd	4g	2r	2r	2r
4r	4r	4r	4r	4r	4r	4r	4r	4r	4r	4r	.	.	.
12aa	4r	4r	4r	4r	4r	12aa	12a	12A	12gg	12g	12gg	12g	12AA
12aa	.	.	.	.	.	12aa	12a	12A	12gg	12g	12gg	12g	12AA
12aa	.	.	.	.	.	12aa	12a	12A	12gg	12g	12gg	12g	12AA
=73	=73	=73	=73	=73	=73	=73	=73	=73	=73	=73	=73	=73	=73
4aa	2.r	2.r	2.r	2.r	2.r	4aa	4a	4A	4gg	4g	4gg	4g	4AA
4r	.	.	.	.	.	4r	4r	4r	4r	4r	4r	4r	4r
12aa	.	.	.	.	.	12aa	12a	12A	12gg	12g	12gg	12g	12AA
12aa	.	.	.	.	.	12aa	12a	12A	12gg	12g	12gg	12g	12AA
12aa	.	.	.	.	.	12aa	12a	12A	12gg	12g	12gg	12g	12AA
=74	=74	=74	=74	=74	=74	=74	=74	=74	=74	=74	=74	=74	=74
4aa	2.r	2.r	2.r	2.r	2.r	4aa	4a	4A	4gg	4g	4gg	4g	4AA
4r	.	.	.	.	.	4r	4r	4r	4r	4r	4r	4r	4r
12aa	.	.	.	.	.	12aa	12a	12A	12gg	12g	12gg	12g	12AA
12aa	.	.	.	.	.	12aa	12a	12A	12gg	12g	12gg	12g	12AA
12aa	.	.	.	.	.	12aa	12a	12A	12gg	12g	12gg	12g	12AA
=75	=75	=75	=75	=75	=75	=75	=75	=75	=75	=75	=75	=75	=75
4aa	2.r	2.r	2.r	2.r	2.r	4aa	4a	4A	4gg	4g	4gg	4g	4AA
4aa	.	.	.	.	.	4aa	4a	4A	4gg	4g	4gg	4g	4AA
4aa	.	.	.	.	.	4aa	4a	4A	4gg	4g	4gg	4g	4AA
=76	=76	=76	=76	=76	=76	=76	=76	=76	=76	=76	=76	=76	=76
4aa	2r	2.r	2.r	2.r	2.r	4aa	4a	4A	4gg	4g	4gg	4g	4AA
2r	.	.	.	.	.	2r	2r	2r	2r	2r	2r	2r	2r
.	8.f	.	.	.	.	.	.	.	.	.	.	.	.
.	16f	.	.	.	.	.	.	.	.	.	.	.	.
=77	=77	=77	=77	=77	=77	=77	=77	=77	=77	=77	=77	=77	=77
2.r	4f	2.A	[2.c	2.F	2.F	2.r	2.r	2.r	2.r	2.r	2.r	2.r	2.r
.	4c	.	.	.	.	.	.	.	.	.	.	.	.
.	4a	.	.	.	.	.	.	.	.	.	.	.	.
=78	=78	=78	=78	=78	=78	=78	=78	=78	=78	=78	=78	=78	=78
2.r	4g	[2.c	2c]	2E	2E	2.r	2.r	2.r	2.r	2.r	2.r	2.r	2.r
.	4c	.	.	.	.	.	.	.	.	.	.	.	.
.	8cc	.	4G	4E-	4E-	.	.	.	.	.	.	.	.
.	8g	.	.	.	.	.	.	.	.	.	.	.	.
=79	=79	=79	=79	=79	=79	=79	=79	=79	=79	=79	=79	=79	=79
2.r	4f#	4c]	4A	2D	2D	2.r	2.r	2.r	2.r	2.r	2.r	2.r	2.r
.	4d	8a	4F#	.	.	.	.	.	.	.	.	.	.
.	.	8f#	.	.	.	.	.	.	.	.	.	.	.
.	4cc	4d	4A	4F#	4F#	.	.	.	.	.	.	.	.
=80	=80	=80	=80	=80	=80	=80	=80	=80	=80	=80	=80	=80	=80
2.r	4b-	[2.d	2B-	2G	2G	2.r	2.r	2.r	2.r	2.r	2.r	2.r	2.r
.	4g	.	.	.	.	.	.	.	.	.	.	.	.
.	8dd	.	4A	4F	4F	.	.	.	.	.	.	.	.
.	8a	.	.	.	.	.	.	.	.	.	.	.	.
=81	=81	=81	=81	=81	=81	=81	=81	=81	=81	=81	=81	=81	=81
2.r	4g#	4d]	4B	2E	2E	2.r	2.r	2.r	2.r	2.r	2.r	2.r	2.r
.	4e	8b	4G#	.	.	.	.	.	.	.	.	.	.
.	.	8g#	.	.	.	.	.	.	.	.	.	.	.
.	4dd	4e	4B	4G#	4G#	.	.	.	.	.	.	.	.
=82	=82	=82	=82	=82	=82	=82	=82	=82	=82	=82	=82	=82	=82
2.r	4cc#	2e	[2.A	2.A	2.A	2.r	2.r	2.r	2.r	2.r	2.r	2.r	2.r
.	4a	.	.	.	.	.	.	.	.	.	.	.	.
.	4ee	4c#	.	.	.	.	.	.	.	.	.	.	.
=83	=83	=83	=83	=83	=83	=83	=83	=83	=83	=83	=83	=83	=83
2.r	4ff	2.d	4A]	[2.AA	[2.AA	4r	4r	2.r	2.r	2.r	2.r	2.r	2.r
.	4dd	.	4f	.	.	4ff	4dd	.	.	.	.	.	.
.	4g#	.	4f	.	.	4ff	4dd	.	.	.	.	.	.
=84	=84	=84	=84	=84	=84	=84	=84	=84	=84	=84	=84	=84	=84
2.r	4a	2.c#	2e	2.AA_	2.AA_	4r	4r	2.r	2.r	2.r	2.r	2.r	2.r
.	4cc#	.	.	.	.	4ee	4cc#	.	.	.	.	.	.
.	4ee	.	4c#	.	.	4ee	4cc#	.	.	.	.	.	.
=85	=85	=85	=85	=85	=85	=85	=85	=85	=85	=85	=85	=85	=85
2.r	4ff	2.d	4d	2.AA_	2.AA_	4r	4r	2.r	2.r	2.r	2.r	2.r	2.r
.	4dd	.	4f	.	.	4ff	4dd	.	.	.	.	.	.
.	4g#	.	4f	.	.	4ff	4dd	.	.	.	.	.	.
=86	=86	=86	=86	=86	=86	=86	=86	=86	=86	=86	=86	=86	=86
2r	4a	4c#	4e	4AA]	4AA]	4ee	4cc#	2r	2r	2r	2r	2r	2r
.	2r	2r	2r	2r	2r	4r	4r	.	.	.	.	.	.
12ddd	.	.	.	.	.	12dd	12dd	12d	12cc	12c	12cc	12c	12D
12ddd	.	.	.	.	.	12dd	12dd	12d	12cc	12c	12cc	12c	12D
12ddd	.	.	.	.	.	12dd	12dd	12d	12cc	12c	12cc	12c	12D
=87	=87	=87	=87	=87	=87	=87	=87	=87	=87	=87	=87	=87	=87
4ddd	4r	4r	4r	4r	4r	4dd	4dd	4d	4cc	4c	4cc	4c	4D
4r	4ddd 4dd 4d	4d 4ddd 4dd	4f# 4a	4F#	4F#	4r	4r	4r	4r	4r	4r	4r	4r
12ddd	4r	4r	4r	4r	4r	12dd	12dd	12d	12cc	12c	12cc	12c	12D
12ddd	.	.	.	.	.	12dd	12dd	12d	12cc	12c	12cc	12c	12D
12ddd	.	.	.	.	.	12dd	12dd	12d	12cc	12c	12cc	12c	12D
=88	=88	=88	=88	=88	=88	=88	=88	=88	=88	=88	=88	=88	=88
4ddd	4r	4r	4r	4r	4r	4dd	4dd	4d	4cc	4c	4cc	4c	4D
4r	4ccc 4dd 4d	4ccc 4d 4dd	4f# 4a	4F#	4F#	4r	4r	4r	4r	4r	4r	4r	4r
12ddd	4r	4r	4r	4r	4r	12dd	12dd	12d	12cc	12c	12cc	12c	12D
12ddd	.	.	.	.	.	12dd	12dd	12d	12cc	12c	12cc	12c	12D
12ddd	.	.	.	.	.	12dd	12dd	12d	12cc	12c	12cc	12c	12D
=89	=89	=89	=89	=89	=89	=89	=89	=89	=89	=89	=89	=89	=89
4ddd	4bb 4dd 4d	4d 4dd 4bb	4g	4G	4G	4dd	4dd	4d	4cc	4c	4cc	4c	4D
4ddd	4aa 4dd 4d	4aa 4dd 4d	4f#	4F#	4F#	4dd	4dd	4d	4cc	4c	4cc	4c	4D
4ddd	4ccc 4dd 4d	4ccc 4d 4dd	4f#	4D	4D	4dd	4dd	4d	4cc	4c	4cc	4c	4D
=90	=90	=90	=90	=90	=90	=90	=90	=90	=90	=90	=90	=90	=90
4ddd	4bb 4dd 4d	4d 4dd 4bb	4g	4G	4G	4dd	4dd	4d	4cc	4c	4cc	4c	4D
4ddd	4aa 4dd 4d	4aa 4dd 4d	4f#	4F#	4F#	4dd	4dd	4d	4cc	4c	4cc	4c	4D
4ddd	4ccc 4dd 4d	4ccc 4dd 4d	4f#	4D	4D	4dd	4dd	4d	4cc	4c	4cc	4c	4D
=91	=91	=91	=91	=91	=91	=91	=91	=91	=91	=91	=91	=91	=91
4ddd	4bb 4dd 4d	4bb 4dd 4d	4g	4G	4G	4dd	4dd	4d	4cc	4c	4cc	4c	8D
.	.	.	.	.	.	.	.	.	.	.	.	.	8D
4ddd	4aa 4dd 4d	4aa 4dd 4d	4f#	4F#	4F#	4dd	4dd	4d	4cc	4c	4cc	4c	8D
.	.	.	.	.	.	.	.	.	.	.	.	.	8D
4ddd	4ccc 4dd 4d	4ccc 4dd 4d	4f#	4D	4D	4dd	4dd	4d	4cc	4c	4cc	4c	8D
.	.	.	.	.	.	.	.	.	.	.	.	.	8D
=92	=92	=92	=92	=92	=92	=92	=92	=92	=92	=92	=92	=92	=92
4bb	4bb 4dd 4d	4dd 4d 4bb	4g	4G	4G	4bb	4dd	4d	4cc	4c	4cc	4c	4D
4r	4r	4r	4r	4r	4r	4r	4r	4r	2r	2r	2r	2r	2r
8ddd	8ddd	8bb	4G	4GG	4GG	4bb	4gg	4G	.	.	.	.	.
8bb	8bb	8gg	.	.	.	.	.	.	.	.	.	.	.
=93	=93	=93	=93	=93	=93	=93	=93	=93	=93	=93	=93	=93	=93
8aa	8aa	8ff#	2.A	2.AA	2.AA	8aa	8ff#	2A	2.r	2.r	2.r	2.r	2.r
8bb	8bb	8gg	.	.	.	8bb	8gg	.	.	.	.	.	.
8aa	8aa	8ff#	.	.	.	8aa	8ff#	.	.	.	.	.	.
8gg	8gg	8ee	.	.	.	8gg	8ee	.	.	.	.	.	.
8ff#	8ff#	8dd	.	.	.	8ff#	8dd	4AA	.	.	.	.	.
8ee	8ee	8cc#	.	.	.	8ee	8cc#	.	.	.	.	.	.
=94	=94	=94	=94	=94	=94	=94	=94	=94	=94	=94	=94	=94	=94
4dd	8dd	4dd	8d	4D	4D	4dd	4dd	4D	4r	4r	4r	4r	4r
.	8cc#	.	8c#	.	.	.	.	.	.	.	.	.	.
4ddd	8dd	2r	8d	2r	2r	4ff#	4dd	4D	4cc	4e	4cc	4e	4D
.	8ee	.	8e	.	.	.	.	.	.	.	.	.	.
4ddd	8ff#	.	8f#	.	.	4ff#	4dd	4D	4cc	4e	4cc	4e	4D
.	8gg	.	8g	.	.	.	.	.	.	.	.	.	.
=95	=95	=95	=95	=95	=95	=95	=95	=95	=95	=95	=95	=95	=95
4r	8aa	4cc# 4A 4e	8a	4AA	4AA	4r	4r	4r	4r	4r	4r	4r	4r
.	8bb	.	8b	.	.	.	.	.	.	.	.	.	.
4ccc#	8aa	2r	8a	2r	2r	4gg	4ee	4AA	4dd	4g	4dd	4g	4AA
.	8gg	.	8g	.	.	.	.	.	.	.	.	.	.
4ccc#	8ff#	.	8f#	.	.	4gg	4ee	4AA	4dd	4g	4dd	4g	4AA
.	8ee	.	8e	.	.	.	.	.	.	.	.	.	.
=96	=96	=96	=96	=96	=96	=96	=96	=96	=96	=96	=96	=96	=96
4r	8dd	4dd 4f# 4A	8d	4D	4D	4r	4r	4r	4r	4r	4r	4r	4r
.	8cc#	.	8c#	.	.	.	.	.	.	.	.	.	.
4ddd	8dd	2r	8d	2r	2r	4ff#	4dd	4D	4ee	4cc	4ee	4cc	4D
.	8ee	.	8e	.	.	.	.	.	.	.	.	.	.
4ddd	8ff#	.	8f#	.	.	4ff#	4dd	4D	4ee	4cc	4ee	4cc	4D
.	8gg	.	8g	.	.	.	.	.	.	.	.	.	.
=97	=97	=97	=97	=97	=97	=97	=97	=97	=97	=97	=97	=97	=97
4r	8aa	4cc# 4a 4ee	8a	4AA	4AA	4r	4r	4r	4r	4r	4r	4r	4r
.	8bb	.	8b	.	.	.	.	.	.	.	.	.	.
4ccc#	8aa	2r	8a	2r	2r	4gg	4ee	4AA	4dd	4g	4dd	4g	4AA
.	8gg	.	8g	.	.	.	.	.	.	.	.	.	.
4ccc#	8ff#	.	8f#	.	.	4gg	4ee	4AA	4dd	4g	4dd	4g	8AA
.	8ee	.	8e	.	.	.	.	.	.	.	.	.	8AA
=98	=98	=98	=98	=98	=98	=98	=98	=98	=98	=98	=98	=98	=98
4ddd	4dd	4a 4ff# 4d	4d	4D	4D	4ff#	4dd	4D	4cc	4e	4cc	4e	4D
2r	2r	2r	2r	2r	2r	2r	2r	2r	2r	2r	2r	2r	2r
==	==	==	==	==	==	==	==	==	==	==	==	==	==
*-	*-	*-	*-	*-	*-	*-	*-	*-	*-	*-	*-	*-	*-
!!!RWG1: This file contains only pitch and duration data.
!!!RWG2: Transposing instruments are not transposed.
!!!RWG3: Spines may have incompatible meters.
!!!RWG4: Durations of rests and tied notes may be interpreted.
!!!RWG: Key is interpreted using the Humdrum key tool.
!!!AFT: stage1
!!!END: 1997/04/15
!!format changes:
!!content changes:
!!public access: complete
!!!KEY: 3472329463
!!!EMD: Converted from MuseData to Humdrum Dec 16, 2000, by Andreas Kornstaedt using muse2kern.
